packages/crayons-core/src/components/icon/icon-assets/icons/collapse.svg

<?xml version="1.0" encoding="UTF-8"?>
<svg width="14px" height="14px" viewBox="0 0 14 14" version="1.1" xmlns="http://www.w3.org/2000/svg" xmlns:xlink="http://www.w3.org/1999/xlink">
    <!-- Generator: Sketch 52.6 (67491) - http://www.bohemiancoding.com/sketch -->
    <title>icon/collapse</title>
    <desc>Created with Sketch.</desc>
    <g id="Icons-✅" stroke="none" stroke-width="1" fill="none" fill-rule="evenodd">
        <g id="Icons" transform="translate(-245.000000, -2389.000000)" fill="currentColor">
            <g id="icon/collapse" transform="translate(245.000000, 2389.000000)">
                <g id="collapse">
                    <path d="M11.3,0 C12.7911688,4.4408921e-16 14,1.20883118 14,2.7 L14,11.3 C14,12.0160845 13.7155365,12.7028401 13.2091883,13.2091883 C12.7028401,13.7155365 12.0160845,14 11.3,14 L2.7,14 C1.98391548,14 1.29715991,13.7155365 0.790811691,13.2091883 C0.284463469,12.7028401 -6.66133815e-16,12.0160845 0,11.3 L0,2.7 C2.22044605e-16,1.20883118 1.20883118,2.22044605e-16 2.7,0 L11.3,0 Z M1.4,11.3 C1.4,12.0179702 1.98202983,12.6 2.7,12.6 L9.19,12.6 L9.19,1.4 L2.7,1.4 C2.35521856,1.4 2.02455848,1.53696389 1.78076118,1.78076118 C1.53696389,2.02455848 1.4,2.35521856 1.4,2.7 L1.4,11.3 Z M12.6,11.3 L12.6,2.7 C12.6,2.35521856 12.4630361,2.02455848 12.2192388,1.78076118 C11.9754415,1.53696389 11.6447814,1.4 11.3,1.4 L10.59,1.4 L10.59,12.6 L11.3,12.6 C12.0179702,12.6 12.6,12.0179702 12.6,11.3 Z M4.89,4.69 L6.7,6.5 C6.96923553,6.77896751 6.96923553,7.22103249 6.7,7.5 L4.89,9.32 C4.75436674,9.44709666 4.57587006,9.51849533 4.39,9.52 C4.20678721,9.52002671 4.03086628,9.44822225 3.9,9.32 C3.76303562,9.18974694 3.68549974,9.00901085 3.68549974,8.82 C3.68549974,8.63098915 3.76303562,8.45025306 3.9,8.32 L5.21,7 L3.89,5.69 C3.75303562,5.55974694 3.67549974,5.37901085 3.67549974,5.19 C3.67549974,5.00098915 3.75303562,4.82025306 3.89,4.69 C4.16679776,4.41544444 4.61320224,4.41544444 4.89,4.69 Z" id="Combined-Shape"></path>
                </g>
            </g>
        </g>
    </g>
</svg>

<svg viewBox="0 0 14 14"><path d="M11.3 0A2.7 2.7 0 0 1 14 2.7v8.6a2.7 2.7 0 0 1-2.7 2.7H2.7A2.7 2.7 0 0 1 0 11.3V2.7A2.7 2.7 0 0 1 2.7 0h8.6zM1.4 11.3a1.3 1.3 0 0 0 1.3 1.3h6.49V1.4H2.7a1.3 1.3 0 0 0-1.3 1.3v8.6zm11.2 0V2.7a1.3 1.3 0 0 0-1.3-1.3h-.71v11.2h.71a1.3 1.3 0 0 0 1.3-1.3zM4.89 4.69L6.7 6.5a.72.72 0 0 1 0 1L4.89 9.32a.74.74 0 0 1-.5.2.7.7 0 0 1-.49-.2.69.69 0 0 1 0-1L5.21 7 3.89 5.69a.69.69 0 0 1 0-1 .71.71 0 0 1 1 0z" fill="currentColor" fill-rule="evenodd"/></svg>
